static/assets/img/icons/theme/communication/group.svg

<svg height="24" viewBox="0 0 24 24" width="24" xmlns="http://www.w3.org/2000/svg"><g fill="none" fill-rule="evenodd"><path d="m0 0h24v24h-24z" opacity="0"/><g fill="#000" fill-rule="nonzero"><path d="m18 14c-1.6568542 0-3-1.3431458-3-3 0-1.65685425 1.3431458-3 3-3s3 1.34314575 3 3c0 1.6568542-1.3431458 3-3 3zm-9-3c-2.209139 0-4-1.790861-4-4s1.790861-4 4-4 4 1.790861 4 4-1.790861 4-4 4z" opacity=".3"/><path d="m17.6011961 15.0006174c3.4065082.037236 6.1879788 1.7595244 6.3972976 5.3993826.0084309.1466056 0 .6-.5425438.6h-3.8559499c0-2.2509346-.7437065-4.3281673-1.9988039-5.9993826zm-17.60054442 5.1985881c.38760685-4.7726896 4.26126067-7.1992055 8.98268966-7.1992055 4.78787506 0 8.72154236 2.2931929 9.01457296 7.2.0116736.1954741 0 .8-.7512144.8-3.7055759 0-9.21197518 0-16.51919767 0-.25079007 0-.74796398-.54082-.72685055-.8007945z"/></g></g></svg>

<svg width="24px" height="24px" viewBox="0 0 24 24" version="1.1" xmlns="http://www.w3.org/2000/svg" xmlns:xlink="http://www.w3.org/1999/xlink">
    <title>Icon For Group</title>
    <g stroke="none" stroke-width="1" fill="none" fill-rule="evenodd">
        <polygon points="0 0 24 0 24 24 0 24" opacity="0"></polygon>
        <path d="M18,14 C16.3431458,14 15,12.6568542 15,11 C15,9.34314575 16.3431458,8 18,8 C19.6568542,8 21,9.34314575 21,11 C21,12.6568542 19.6568542,14 18,14 Z M9,11 C6.790861,11 5,9.209139 5,7 C5,4.790861 6.790861,3 9,3 C11.209139,3 13,4.790861 13,7 C13,9.209139 11.209139,11 9,11 Z" fill="#000000" fill-rule="nonzero" opacity="0.3"></path>
        <path d="M17.6011961,15.0006174 C21.0077043,15.0378534 23.7891749,16.7601418 23.9984937,20.4 C24.0069246,20.5466056 23.9984937,21 23.4559499,21 L19.6,21 C19.6,18.7490654 18.8562935,16.6718327 17.6011961,15.0006174 Z M0.00065168429,20.1992055 C0.388258525,15.4265159 4.26191235,13 8.98334134,13 C13.7712164,13 17.7048837,15.2931929 17.9979143,20.2 C18.0095879,20.3954741 17.9979143,21 17.2466999,21 C13.541124,21 8.03472472,21 0.727502227,21 C0.476712155,21 -0.0204617505,20.45918 0.00065168429,20.1992055 Z" fill="#000000" fill-rule="nonzero"></path>
    </g>
</svg>
